img/phone_red.svg

<svg width="15" height="15" viewBox="0 0 15 15" fill="none" xmlns="http://www.w3.org/2000/svg">
<path d="M13.7504 10.5751V12.4501C13.7511 12.6241 13.7154 12.7964 13.6457 12.9559C13.576 13.1154 13.4737 13.2586 13.3454 13.3762C13.2172 13.4939 13.0657 13.5835 12.9009 13.6393C12.736 13.695 12.5612 13.7157 12.3879 13.7001C10.4647 13.4911 8.61726 12.8339 6.99414 11.7813C5.48403 10.8217 4.20372 9.54142 3.24414 8.03131C2.18787 6.40081 1.53054 4.54443 1.32539 2.61256C1.30977 2.43973 1.33031 2.26554 1.3857 2.10108C1.44109 1.93662 1.53012 1.78549 1.64711 1.65732C1.76411 1.52916 1.90651 1.42675 2.06525 1.35664C2.224 1.28652 2.3956 1.25022 2.56914 1.25006H4.44414C4.74745 1.24708 5.04151 1.35448 5.27149 1.55227C5.50147 1.75005 5.65168 2.02471 5.69414 2.32506C5.77327 2.9251 5.92004 3.51426 6.13164 4.08131C6.21573 4.30501 6.23392 4.54813 6.18408 4.78186C6.13423 5.01559 6.01842 5.23013 5.85039 5.40006L5.05664 6.19381C5.94636 7.75853 7.24192 9.05409 8.80664 9.94381L9.60039 9.15006C9.77032 8.98202 9.98486 8.86622 10.2186 8.81637C10.4523 8.76652 10.6954 8.78472 10.9191 8.86881C11.4862 9.0804 12.0753 9.22717 12.6754 9.30631C12.979 9.34914 13.2563 9.50206 13.4545 9.736C13.6527 9.96993 13.758 10.2685 13.7504 10.5751Z" fill="#DA2B36"/>
</svg>

<svg width="15" height="15" fill="none" xmlns="http://www.w3.org/2000/svg"><path d="M13.75 10.575v1.875a1.25 1.25 0 0 1-1.362 1.25 12.37 12.37 0 0 1-5.394-1.919c-1.51-.96-2.79-2.24-3.75-3.75a12.369 12.369 0 0 1-1.919-5.418A1.25 1.25 0 0 1 2.57 1.25h1.875a1.25 1.25 0 0 1 1.25 1.075c.08.6.226 1.19.438 1.756a1.25 1.25 0 0 1-.282 1.32l-.793.793a10 10 0 0 0 3.75 3.75L9.6 9.15a1.25 1.25 0 0 1 1.32-.281 8.026 8.026 0 0 0 1.755.437 1.25 1.25 0 0 1 1.075 1.27Z" fill="#DA2B36"/></svg>
